icons/ic_edit-text.svg

<svg width="24" height="24" viewBox="0 0 24 24" fill="none" xmlns="http://www.w3.org/2000/svg">
<g clip-path="url(#clip0-488803)">
<path d="M17.8801 7.0298L15.0712 5.35791L10.498 12.2619L13.3051 13.9322L17.8801 7.0298ZM10.0696 14.3849L10.0076 15.9535L11.4723 15.2189L12.8344 14.5376L10.1259 12.9245L10.0696 14.3849ZM18.6295 4.48982L17.1613 3.6146C16.9838 3.509 16.7692 3.47457 16.5649 3.51887C16.3605 3.56317 16.1831 3.68258 16.0716 3.85085L15.492 4.72333L18.2991 6.39467L18.8787 5.52328C19.1106 5.17166 19.0005 4.70849 18.6295 4.48873V4.48982ZM16.5649 17.5754C16.5649 17.7265 16.4345 17.8501 16.2751 17.8501H6.82375C6.74689 17.8501 6.67317 17.8211 6.61882 17.7696C6.56447 17.7181 6.53394 17.6482 6.53394 17.5754V6.94642C6.53394 6.87356 6.56447 6.80368 6.61882 6.75217C6.67317 6.70065 6.74689 6.6717 6.82375 6.6717L12.7052 6.70391L13.7972 5.21506H7.02868C5.91001 5.21506 5 6.07765 5 7.13803V17.577C5 18.6374 5.91001 19.5 7.02868 19.5H16.0415C17.1602 19.5 18.0702 18.6374 18.0702 17.577V8.80662L16.5649 11.429V17.577V17.5754Z" fill="#222532"/>
</g>
<defs>
<clipPath id="clip0-488803">
<rect width="24" height="24" fill="white"/>
</clipPath>
</defs>
</svg>

<?xml version="1.0" encoding="utf-8"?>
<!-- Generator: Adobe Illustrator 24.0.0, SVG Export Plug-In . SVG Version: 6.00 Build 0)  -->
<svg version="1.1" id="Layer_1" xmlns="http://www.w3.org/2000/svg" xmlns:xlink="http://www.w3.org/1999/xlink" x="0px" y="0px"
	 viewBox="0 0 24 24" style="enable-background:new 0 0 24 24;" xml:space="preserve">
<style type="text/css">
	.st0{clip-path:url(#SVGID_2_);}
	.st1{fill:#222532;}
</style>
<g>
	<defs>
		<rect id="SVGID_1_" width="24" height="24"/>
	</defs>
	<clipPath id="SVGID_2_">
		<use xlink:href="#SVGID_1_"  style="overflow:visible;"/>
	</clipPath>
	<g class="st0">
		<path class="st1" d="M17.9,7l-2.8-1.7l-4.6,6.9l2.8,1.7L17.9,7z M10.1,14.4L10,16l1.5-0.7l1.4-0.7l-2.7-1.6L10.1,14.4z M18.6,4.5
			l-1.5-0.9c-0.2-0.1-0.4-0.1-0.6-0.1c-0.2,0-0.4,0.2-0.5,0.3l-0.6,0.9l2.8,1.7l0.6-0.9C19.1,5.2,19,4.7,18.6,4.5L18.6,4.5z
			 M16.6,17.6c0,0.2-0.1,0.3-0.3,0.3H6.8c-0.1,0-0.2,0-0.2-0.1c-0.1-0.1-0.1-0.1-0.1-0.2V6.9c0-0.1,0-0.1,0.1-0.2
			c0.1-0.1,0.1-0.1,0.2-0.1l5.9,0l1.1-1.5H7c-1.1,0-2,0.9-2,1.9v10.4c0,1.1,0.9,1.9,2,1.9h9c1.1,0,2-0.9,2-1.9V8.8l-1.5,2.6V17.6
			L16.6,17.6z"/>
	</g>
</g>
</svg>
